packages/calcite-ui-icons/icons/trace-path-16.svg

<?xml version="1.0" encoding="UTF-8"?><svg id="icons" xmlns="http://www.w3.org/2000/svg" viewBox="0 0 16 16"><defs><style>.cls-1{fill:none;}</style></defs><rect class="cls-1" width="16" height="16"/><path d="M15,13h-1c-.55231,0-1,.44769-1,1v1c0,.55225.44769,1,1,1h1c.55231,0,1-.44775,1-1v-1c0-.55231-.44769-1-1-1ZM15,15h-1v-1h1v1ZM14.97461,8h-.94922v-1h.94922v1ZM14.97461,10h-.94922v-1h.94922v1ZM14.97461,6h-.94922v-1h.94922v1ZM14.02539,1.97461h-.02539v-.94922h.97461v.97461h-.94922v-.02539ZM10,1.02539h1v.94922h-1v-.94922ZM14.97461,4h-.94922v-1h.94922v1ZM13,1.97461h-1v-.94922h1v.94922ZM8,14.02539H1.97461V3h.02539c.55231,0,1-.44775,1-1v-1c0-.55231-.44769-1-1-1h-1C.44769,0,0,.44769,0,1v1c0,.55225.44769,1,1,1h.02539v11.97461h7.97461v-3.97461h-1v3.02539ZM1,2v-1h1v1h-1ZM8,1.02539h1v.97461h-1v-.97461ZM8,9h1v1h-1v-1ZM14.02539,11h.94922v1h-.94922v-1ZM8,5h1v1h-1v-1ZM8,7h1v1h-1v-1ZM8,3h1v1h-1v-1Z"/></svg>

<svg xmlns="http://www.w3.org/2000/svg" viewBox="0 0 16 16"><path fill="none" d="M0 0h16v16H0z"/><path d="M15 13h-1a1 1 0 0 0-1 1v1a1 1 0 0 0 1 1h1a1 1 0 0 0 1-1v-1a1 1 0 0 0-1-1zm0 2h-1v-1h1v1zm-.025-7h-.95V7h.95v1zm0 2h-.95V9h.95v1zm0-4h-.95V5h.95v1zm-.95-4.025H14v-.95h.975V2h-.95v-.025zM10 1.025h1v.95h-1v-.95zM14.975 4h-.95V3h.95v1zM13 1.975h-1v-.95h1v.95zm-5 12.05H1.975V3H2a1 1 0 0 0 1-1V1a1 1 0 0 0-1-1H1a1 1 0 0 0-1 1v1a1 1 0 0 0 1 1h.025v11.975H9V11H8v3.025zM1 2V1h1v1H1zm7-.975h1V2H8v-.975zM8 9h1v1H8V9zm6.025 2h.95v1h-.95v-1zM8 5h1v1H8V5zm0 2h1v1H8V7zm0-4h1v1H8V3z"/></svg>
